src/img/HomePage/Footer/NarutoPink.svg

<?xml version="1.0" encoding="UTF-8"?> <svg xmlns="http://www.w3.org/2000/svg" width="81" height="80" viewBox="0 0 81 80" fill="none"> <g clip-path="url(#clip0_1800_1739)"> <path fill-rule="evenodd" clip-rule="evenodd" d="M49.4472 2.31126C50.6868 3.54248 51.1042 6.9458 52.798 8.90109C55.0873 11.5427 59.03 12.6509 64.198 12.1061C67.9823 11.7067 69.4048 12.1116 71.4579 14.174C73.7983 16.5268 73.8809 17.2428 72.4492 22.8029C70.67 29.7149 71.6317 32.6838 76.7332 36.0285C81.0715 38.8717 82.1343 41.3466 80.5944 45.0148C79.6398 47.288 78.5857 48.2501 75.4227 49.7333C70.01 52.2727 68.4061 55.3446 68.9669 62.1022C69.6569 70.4129 65.7712 73.6471 58.0425 71.1938C52.0057 69.2773 48.9166 70.1932 45.052 75.0437C41.0315 80.0881 39.4212 80.838 35.8174 79.3428C33.3054 78.2996 32.4543 77.3641 30.8198 73.8533C28.2843 68.4053 25.6535 67.1054 18.7134 67.8702C10.9946 68.7214 6.85554 64.1731 9.45019 57.6925C10.7099 54.5476 10.7455 48.8979 9.26732 47.1235C7.17182 44.6081 5.9448 44.0871 4.0506 42.7624C2.92292 41.9746 2.35282 41.771 1.23558 40.4395C-0.459422 37.9077 -0.522637 36.6964 0.572293 34.4107C1.5532 32.3641 3.85428 31.1549 6.83414 29.8662C12.1082 27.5839 14.6139 22.7776 13.2663 17.529C12.0627 12.8396 13.8202 9.23501 18.0158 7.93316C19.715 7.4059 22.2866 8.2964 24.746 8.86405C26.7471 9.32595 28.2716 9.73087 30.3168 9.37643C33.6764 8.79396 34.3794 8.28306 37.6075 4.06667C39.8088 1.19141 41.7533 -0.802079 44.9107 0.00398988C47.0296 0.345521 48.2075 1.08004 49.4472 2.31126ZM56.0715 50.0096C58.8019 45.1228 59.3921 42.7437 57.4895 37.5963C55.7394 32.859 54.7663 31.9876 51.6173 29.7118C45.2253 26.1448 36.6687 28.1529 34.31 33.7724C32.1701 38.8729 32.5744 41.8188 35.8847 45.222C37.5404 46.9257 39.4127 48.1109 40.0445 47.8571C40.8482 47.534 40.2679 46.5526 38.1153 44.5922C35.5902 42.2918 35.0735 41.1782 35.2365 38.3852C35.5332 33.3144 40.1376 29.7851 45.8235 30.2687C49.8495 30.6111 51.0709 30.8402 54.1225 35.1591C56.8736 39.0538 56.6057 40.5361 55.988 43.6331C54.9209 48.9912 51.4722 53.5938 47.2611 55.279C36.2441 59.6896 23.8806 52.1634 22.135 39.9824C21.4604 35.2806 19.5482 34.4039 19.6124 38.8258C19.7094 45.5317 25.8958 54.4325 32.3502 57.1539C41.8397 61.1542 51.4655 58.2556 56.0715 50.0096Z" fill="#FA007A"></path> </g> <defs> <clipPath id="clip0_1800_1739"> <rect width="81" height="80" fill="white"></rect> </clipPath> </defs> </svg>

<svg xmlns="http://www.w3.org/2000/svg" width="81" height="80" fill="none"><g clip-path="url(#a)"><path fill-rule="evenodd" clip-rule="evenodd" d="M49.447 2.311c1.24 1.231 1.657 4.635 3.351 6.59 2.29 2.642 6.232 3.75 11.4 3.205 3.784-.4 5.207.006 7.26 2.068 2.34 2.353 2.423 3.069.991 8.629-1.779 6.912-.817 9.88 4.284 13.226 4.338 2.843 5.401 5.318 3.861 8.986-.954 2.273-2.008 3.235-5.171 4.718-5.413 2.54-7.017 5.612-6.456 12.37.69 8.31-3.196 11.544-10.925 9.09-6.036-1.916-9.125-1-12.99 3.85-4.02 5.045-5.63 5.795-9.235 4.3-2.512-1.043-3.363-1.979-4.997-5.49-2.536-5.448-5.166-6.748-12.107-5.983-7.718.851-11.857-3.697-9.263-10.178 1.26-3.144 1.296-8.794-.183-10.569-2.095-2.515-3.322-3.036-5.216-4.36-1.128-.788-1.698-.992-2.815-2.323-1.695-2.532-1.759-3.744-.664-6.03.981-2.046 3.282-3.255 6.262-4.544 5.274-2.282 7.78-7.088 6.432-12.337-1.203-4.69.554-8.294 4.75-9.596 1.699-.527 4.27.363 6.73.931 2.001.462 3.526.867 5.57.512 3.36-.582 4.063-1.093 7.292-5.31 2.2-2.875 4.145-4.868 7.303-4.062 2.119.342 3.297 1.076 4.536 2.307Zm6.624 47.699c2.73-4.887 3.321-7.266 1.419-12.414-1.75-4.737-2.724-5.608-5.873-7.884-6.392-3.567-14.948-1.56-17.307 4.06-2.14 5.1-1.736 8.047 1.575 11.45 1.655 1.704 3.528 2.889 4.16 2.635.803-.323.223-1.304-1.93-3.265-2.525-2.3-3.041-3.414-2.879-6.207.297-5.07 4.902-8.6 10.588-8.116 4.026.342 5.247.571 8.299 4.89 2.75 3.895 2.483 5.377 1.865 8.474-1.067 5.358-4.516 9.96-8.727 11.646-11.017 4.41-23.38-3.116-25.126-15.297-.675-4.701-2.587-5.578-2.523-1.156.097 6.706 6.284 15.606 12.738 18.328 9.49 4 19.115 1.102 23.721-7.144Z" fill="#FA007A"/></g><defs><clipPath id="a"><path fill="#fff" d="M0 0h81v80H0z"/></clipPath></defs></svg>
